X: 1
T: String Quartet in D major opus 1 no 3 mvt 3
C: Franz Joseph Haydn
%%abc-version 2.0
%%abcx-abcm2ps-target-version 5.9.1 (29 Sep 2008)
%%abc-creator hum2abc beta
%%abcx-conversion-date 2021/02/14 14:38:31
%%abc-copyright Copyright (c) 1994, 2000 Center for Computer Assisted Research in the Humanities
%%abc-edited-by Frances Bennion
%%abcx-initial-encoding-date 1997/04/15
%%gracespace 0 6 6
%%humdrum-veritas 196194894
%%humdrum-veritas-data 4179195979
%%linebreak <none>
%%barnumbers 0
L: 1/8
M: 2/4
N: Derived from op01n3-03.krn
Q: "Presto"
%%staves [1 2 3 4]
V: 1
V: 2
V: 3 clef=alto
V: 4 clef=bass
K: D
[V:1]z3 a [I:setbarnb1]|
[V:2]z3 z |
[V:3]z3 z |
[V:4]z3 z |
[V:1]fd Ag |
[V:2]z4 |
[V:3]DF CA, |
[V:4]z4 |
[V:1]g2 fz |
[V:2]z3 A |
[V:3]DA, D,z |
[V:4]z3 F, |
[V:1]z4 |
[V:2]BG Ec |
[V:3]z4 |
[V:4]G,E, A,A,, |
[V:1]z3 d |
[V:2]c2 dz |
[V:3]z4 |
[V:4]D,A,, D,,z |
[V:1]fa d'b |
[V:2]z4 |
[V:3]DF B,^D |
[V:4]z4 |
[V:1]a2 ^gz |
[V:2]z3 d |
[V:3]EB, E,z |
[V:4]z3 ^G, |
[V:1]z4 |
[V:2]ca B^g |
[V:3]z4 |
[V:4]A,F, D,E, |
[V:1]z3 a |
[V:2]A2 zz |
[V:3]z3 z |
[V:4]A,E, A,,z |
[V:1]f^d Bd |
[V:2]z4 |
[V:3]B,F BA |
[V:4]z4 |
[V:1]^d2 ez |
[V:2]z3 F |
[V:3]GF Ez |
[V:4]z3 ^D, |
[V:1]z4 |
[V:2]GA B^D |
[V:3]z4 |
[V:4]E,F, G,A, |
[V:1]z3 B |
[V:2]^D2 Ez |
[V:3]z4 |
[V:4]G,F, E,z |
[V:1]eg bd |
[V:2]z4 |
[V:3]GE G^G |
[V:4]z4 |
[V:1]d2 cz |
[V:2]z3 G |
[V:3]AE A,z |
[V:4]z3 C |
[V:1]z4 |
[V:2]FA dF |
[V:3]z4 |
[V:4]DF, B,^G, |
[V:1]z3 A |
[V:2]F2 Ez |
[V:3]z4 |
[V:4]A,E, A,,z |
[V:1]g4 |
[V:2]c4 |
[V:3]z4 |
[V:4]A,,C, E,A, |
[V:1]f3 A |
[V:2]d4 |
[V:3]D,F, A,D |
[V:4]D,2 z2 |
[V:1]c'4 |
[V:2]g4 |
[V:3]A,2 z2 |
[V:4]A,,C, E,A, |
[V:1]d'3 d |
[V:2]f3 d |
[V:3]DF Ad |
[V:4]D,2 z2 |
[V:1]gb d'b |
[V:2]gg bg |
[V:3]B2 z2 |
[V:4]G,,2 z2 |
[V:1]b2 ag |
[V:2]g2 fc |
[V:3]Dd/c/ dA |
[V:4]D,D/C/ DA, |
[V:1]fd Ec |
[V:2]dd Ec |
[V:3]dB GA |
[V:4]DB, G,A, |
[V:1]D2 z2 |
[V:2]D2 zz |
[V:3]DA, D,z |
[V:4]D,A,, D,,z |
[V:1]zd dd |
[V:2]z4 |
[V:3]z=F FF |
[V:4]D,2 z2 |
[V:1]c//d//e3/ z2 |
[V:2]ze ee |
[V:3]E//=F//G3/ z2 |
[V:4]zA, A,G, |
[V:1]z=f ff |
[V:2]d//e//=f3/ z2 |
[V:3]zA AA |
[V:4]=F,//E,//D,3/ z2 |
[V:1]e//=f//g3/ z2 |
[V:2]zg gg |
[V:3]G//A//_B3/ z2 |
[V:4]z=C C_B, |
[V:1]za aa |
[V:2]=f//g//a3/ z2 |
[V:3]z=c cc |
[V:4]A,//G,//=F,3/ z2 |
[V:1]^g//a//b3/ zd'/b/ |
[V:2]zb bb |
[V:3]B//=c//d3/ z2 |
[V:4]zE ED |
[V:1]ae =f^G |
[V:2]ae =f^G |
[V:3]=c=C DE |
[V:4]=C=C, D,E, |
[V:1]A2 zA |
[V:2]A2 zz |
[V:3]A,A A,z |
[V:4]A,,A, A,,z |
[V:1]a4 |
[V:2]zA, A,A, |
[V:3]A,A, A,A, |
[V:4]A,,A,, A,,A,, |
[V:1]^g2 =g2 |
[V:2]B,//C//D3/ C//D//E3/ |
[V:3]A,A, A,A, |
[V:4]A,,A,, A,,A,, |
[V:1]=f2 c2 |
[V:2]D//E//=F3/ E//F//G3/ |
[V:3]A,A, A,A, |
[V:4]A,,A,, A,,A,, |
[V:1]d(3=F/E/D/ d(3F/E/D/ |
[V:2]=F2 D2 |
[V:3]D2 d2 |
[V:4]D,2 D2 |
[V:1]A2 z2 |
[V:2]A2 zA |
[V:3]A2 z2 |
[V:4]A,2 z2 |
[V:1]z3 d |
[V:2]dd dd |
[V:3]z=F ED |
[V:4]z=F, E,D, |
[V:1]gg gg |
[V:2]c//B//A3/ zA |
[V:3]Ac BA |
[V:4]A,C B,A, |
[V:1]f//e//d3/ zd |
[V:2]=cc cc |
[V:3]dF ED |
[V:4]DF, E,D, |
[V:1]=ff ff |
[V:2]B//A//G3/ zG |
[V:3]GB AG |
[V:4]G,B, A,G, |
[V:1]e//d//=c3/ z(3_b/g/e/ |
[V:2]_bb b_B |
[V:3]=cE D=C |
[V:4]=CE, D,=C, |
[V:1]=fd _B=c |
[V:2]Ad _B=c |
[V:3]=Fd _B=c |
[V:4]=F,D _B,=C |
[V:1]=F2 z2 |
[V:2]=F2 z2 |
[V:3]=F=C =F,2 |
[V:4]=F,=C, F,D, |
[V:1]zf ff |
[V:2]z2 d2 |
[V:3]z2 A2 |
[V:4]DD D=C |
[V:1]g//a//_b3/ z2 |
[V:2]d2 _B//=c//d3/ |
[V:3]G2 G,//A,//_B,3/ |
[V:4]_B,//=C//D3/ zG, |
[V:1]ze ee |
[V:2]z2 =c2- |
[V:3]z2 G2 |
[V:4]=CC C_B, |
[V:1]=f//g//a3/ d//e//f3/ |
[V:2]c2 z2 |
[V:3]=F2 z2 |
[V:4]A,//_B,//=C3/ z2 |
[V:1]g//a//_b3/ e//=f//g3/ |
[V:2]e//=f//g3/ c//d//e3/ |
[V:3]z4 |
[V:4]z4 |
[V:1]=f//g//a>g f/e/d/ |
[V:2]d//e//=f>_B A/G/=F/ |
[V:3]D2 G2 |
[V:4]D,2 G,2 |
[V:1]c2 zA, |
[V:2]E2 z2 |
[V:3]AE A,2 |
[V:4]A,E, A,,2 |
[V:1]ee eG |
[V:2]C4 |
[V:3]G3 E |
[V:4]A,,4 |
[V:1]=F//G//A3/ D//E//F3/ |
[V:2]D//E//=F3/ D//E//F3/ |
[V:3]D2 _B2 |
[V:4]D,2 _B,2 |
[V:1]E//=F//G>F E/D/C/ |
[V:2]E//=F//G>F E/D/C/ |
[V:3]G2 A2 |
[V:4]G,2 A,2 |
[V:1]D2 z2 |]
[V:2]D2 zz |]
[V:3]DA, D,z |]
[V:4]D,A,, D,,z |]

